brandFactory_export/3.Masa/Ajustes web _3Masa.svg

<?xml version="1.0" encoding="UTF-8"?>
<svg width="24px" height="24px" viewBox="0 0 24 24" version="1.1" xmlns="http://www.w3.org/2000/svg" xmlns:xlink="http://www.w3.org/1999/xlink">
    <title>3.Masa/Ajustes web _3Masa</title>
    <g id="Symbols" stroke="none" stroke-width="1" fill="none" fill-rule="evenodd">
        <g id="3.Masa/Ajustes-web-_3Masa" fill="#5CB615" fill-rule="nonzero">
            <path d="M11.8117647,15.4605042 C13.0756303,15.4605042 13.8016807,14.7613445 13.8016807,13.5445378 C13.8016807,12.3277311 13.0756303,11.6319328 11.8117647,11.6319328 C10.5478992,11.6319328 9.82184874,12.3277311 9.82184874,13.5445378 C9.82184874,14.7613445 10.5478992,15.4605042 11.8117647,15.4605042 Z M16.1042017,12.3882353 C16.5680672,12.3882353 16.9411765,12.7478992 16.9411765,13.194958 L16.9411765,13.897479 C16.9411765,14.3411765 16.5680672,14.7042017 16.1042017,14.7042017 L15.502521,14.7042017 C15.4554622,14.902521 15.394958,15.087395 15.3210084,15.2621849 L15.8084034,15.7327731 C16.1277311,16.0352941 16.1378151,16.5361345 15.8386555,16.8554622 L15.8084034,16.8857143 L15.2739496,17.4 C14.9378151,17.7159664 14.4134454,17.7159664 14.0806723,17.4 L13.5932773,16.9260504 C13.405042,17 13.210084,17.0571429 13.0117647,17.1042017 L13.0117647,17.6823529 C13.0117647,18.1260504 12.6352941,18.4890756 12.1747899,18.4890756 L11.4453782,18.4890756 C10.9815126,18.4890756 10.6084034,18.1260504 10.6084034,17.6823529 L10.6084034,17.1042017 C10.410084,17.0605042 10.2151261,17 10.0268908,16.9260504 L9.5394958,17.4 C9.2,17.7058824 8.68571429,17.7058824 8.34621849,17.4 L7.81176471,16.8823529 C7.49579832,16.5764706 7.48571429,16.0722689 7.78823529,15.7563025 L7.81176471,15.7327731 L8.29579832,15.2689076 C8.22184874,15.087395 8.16134454,14.8957983 8.11764706,14.7042017 L7.51596639,14.7042017 C7.05210084,14.7042017 6.6789916,14.3411765 6.6789916,13.897479 L6.6789916,13.194958 C6.6789916,12.7512605 7.05210084,12.3882353 7.51596639,12.3882353 L8.11764706,12.3882353 C8.15798319,12.2235294 8.21512605,12.0184874 8.29579832,11.8235294 L7.81176471,11.3563025 C7.65378151,11.2084034 7.56638655,11 7.56638655,10.7815126 C7.56638655,10.5596639 7.65378151,10.3546218 7.81512605,10.2033613 L8.34621849,9.68907563 C8.68571429,9.38319328 9.2,9.38319328 9.5394958,9.68907563 L10.0268908,10.1596639 C10.2084034,10.0890756 10.4033613,10.0319328 10.6084034,9.98487395 L10.6084034,9.40672269 C10.6084034,8.96302521 10.9848739,8.6 11.4453782,8.6 L12.1747899,8.6 C12.6386555,8.6 13.0117647,8.96302521 13.0117647,9.40672269 L13.0117647,9.98487395 C13.2168067,10.0319328 13.405042,10.0857143 13.5932773,10.1630252 L14.0806723,9.68907563 C14.4168067,9.3697479 14.9411765,9.3697479 15.2739496,9.68907563 L15.8084034,10.2033613 C16.1243697,10.5058824 16.1378151,11.0067227 15.8352941,11.3260504 C15.8252101,11.3361345 15.8184874,11.3462185 15.8084034,11.3529412 L15.3176471,11.8235294 C15.3915966,11.9983193 15.4521008,12.1865546 15.4991597,12.3848739 C15.502521,12.3882353 16.1042017,12.3882353 16.1042017,12.3882353 L16.1042017,12.3882353 Z M21.9092437,19.3529412 C22.0571429,19.3529412 22.1781513,19.2386555 22.1781513,19.0941176 L22.1781513,7.49747899 L1.44537815,7.49747899 L1.44537815,19.0941176 C1.44537815,19.2352941 1.56638655,19.3529412 1.71428571,19.3529412 L21.9092437,19.3529412 Z M3.82857143,5.6789916 C3.82184874,5.31596639 3.52605042,5.02689076 3.16302521,5.03361345 L3.15966387,5.03361345 C2.79663866,5.02689076 2.49747899,5.31260504 2.48739496,5.67563025 L2.48739496,5.6789916 C2.48739496,6.03529412 2.78655462,6.32436975 3.15630252,6.32436975 C3.52941176,6.32436975 3.82857143,6.03529412 3.82857143,5.6789916 Z M5.84201681,5.6789916 C5.83529412,5.31596639 5.53613445,5.02689076 5.17310924,5.03361345 L5.1697479,5.03361345 C4.80672269,5.02689076 4.50756303,5.31596639 4.50084034,5.6789916 C4.50084034,6.03529412 4.8,6.32436975 5.1697479,6.32436975 C5.53613445,6.33109244 5.83529412,6.04201681 5.84201681,5.6789916 Z M7.85546218,5.6789916 C7.8487395,5.31596639 7.54957983,5.02689076 7.18655462,5.03361345 C6.82352941,5.02689076 6.52436975,5.31260504 6.51428571,5.67563025 L6.51428571,5.6789916 C6.51428571,6.03529412 6.81344538,6.32436975 7.18319328,6.32436975 C7.54957983,6.33109244 7.8487395,6.04201681 7.85546218,5.6789916 Z M21.9092437,3.0302521 C22.8537815,3.0302521 23.6235294,3.77310924 23.6235294,4.68403361 L23.6235294,19.0941176 C23.6235294,20.005042 22.8537815,20.7478992 21.9092437,20.7478992 L1.71428571,20.7478992 C0.766386555,20.7478992 0,20.0084034 0,19.097479 L0,4.68403361 C0,3.77310924 0.766386555,3.0302521 1.71428571,3.0302521 L21.9092437,3.0302521 L21.9092437,3.0302521 Z" id="Ajustes-web-_3Masa"></path>
        </g>
    </g>
</svg>

<svg width="24" height="24" viewBox="0 0 24 24" xmlns="http://www.w3.org/2000/svg"><path d="M11.812 15.46c1.264 0 1.99-.699 1.99-1.915 0-1.217-.726-1.913-1.99-1.913s-1.99.696-1.99 1.913c0 1.216.726 1.916 1.99 1.916zm4.292-3.072c.464 0 .837.36.837.807v.702c0 .444-.373.807-.837.807h-.601a3.499 3.499 0 01-.182.558l.487.47c.32.303.33.804.03 1.123l-.03.03-.534.515a.87.87 0 01-1.193 0l-.488-.474a4.307 4.307 0 01-.581.178v.578c0 .444-.377.807-.837.807h-.73c-.463 0-.837-.363-.837-.807v-.578a3.874 3.874 0 01-.581-.178l-.488.474a.89.89 0 01-1.193 0l-.534-.518a.8.8 0 01-.024-1.126l.024-.023.484-.464a3.672 3.672 0 01-.178-.565h-.602c-.464 0-.837-.363-.837-.807v-.702c0-.444.373-.807.837-.807h.602c.04-.164.097-.37.178-.564l-.484-.468a.785.785 0 01-.246-.574c0-.222.088-.427.25-.579l.53-.514a.89.89 0 011.193 0l.488.47c.181-.07.376-.127.581-.174v-.578c0-.444.377-.807.837-.807h.73c.464 0 .837.363.837.807v.578c.205.047.393.1.581.178l.488-.474a.863.863 0 011.193 0l.534.514c.316.303.33.804.027 1.123-.01.01-.017.02-.027.027l-.49.47c.074.175.134.364.181.562.004.003.605.003.605.003zm5.805 6.965a.263.263 0 00.27-.259V7.497H1.444v11.597c0 .141.121.259.27.259h20.194zM3.83 5.679a.654.654 0 00-.666-.645H3.16a.66.66 0 00-.673.642v.003c0 .356.3.645.67.645.372 0 .672-.289.672-.645zm2.013 0a.657.657 0 00-.669-.645H5.17a.657.657 0 00-.67.645c0 .356.3.645.67.645a.658.658 0 00.672-.645zm2.013 0a.657.657 0 00-.668-.645.66.66 0 00-.673.642v.003c0 .356.3.645.67.645a.658.658 0 00.671-.645zM21.91 3.03c.945 0 1.715.743 1.715 1.654v14.41c0 .911-.77 1.654-1.715 1.654H1.714c-.948 0-1.714-.74-1.714-1.65V4.683c0-.91.766-1.654 1.714-1.654H21.91z" fill="#5CB615" fill-rule="nonzero"/></svg>
